src/cmd/sc_insertrowsafter.svg

<svg viewBox="0 0 16 16" xmlns="http://www.w3.org/2000/svg"><path d="m2 2v1 4 2h1v-2h3v2h1v-2h2v2h1v-2h3v1 1h1v-1-1-4-1h-4-1zm1 1h3v3h-3zm4 0h2v3h-2zm3 0h3v3h-3zm1 6v2h-2v1h2v2h1v-2h2v-1h-2v-2z" fill="#232629"/><path d="m2 9v1 2.28125 1.71875h1 1.28125 1.4375.28125 1 1.28125.71875v-1h-2-.28125l.28125-.28125 1-1 1-1v-1.71875h-1-1-1-.71875-1.28125-1zm1 1h1 .28125l-.28125.28125-1 1zm2.71875 0h.28125 1 1 .28125l-.28125.28125-1 1-1 1-.71875.71875h-2.28125v-.28125l1-1z" fill="#762572"/></svg>

<?xml version="1.0" encoding="UTF-8" standalone="no"?>
<svg
   xmlns:dc="http://purl.org/dc/elements/1.1/"
   xmlns:cc="http://creativecommons.org/ns#"
   xmlns:rdf="http://www.w3.org/1999/02/22-rdf-syntax-ns#"
   xmlns:svg="http://www.w3.org/2000/svg"
   xmlns="http://www.w3.org/2000/svg"
   xmlns:sodipodi="http://sodipodi.sourceforge.net/DTD/sodipodi-0.dtd"
   xmlns:inkscape="http://www.inkscape.org/namespaces/inkscape"
   viewBox="0 0 16 16"
   version="1.1"
   id="svg6"
   sodipodi:docname="sc_insertrowsafter.svg"
   inkscape:version="0.92.4 (5da689c313, 2019-01-14)">
  <metadata
     id="metadata12">
    <rdf:RDF>
      <cc:Work
         rdf:about="">
        <dc:format>image/svg+xml</dc:format>
        <dc:type
           rdf:resource="http://purl.org/dc/dcmitype/StillImage" />
      </cc:Work>
    </rdf:RDF>
  </metadata>
  <defs
     id="defs10" />
  <sodipodi:namedview
     pagecolor="#ffffff"
     bordercolor="#666666"
     borderopacity="1"
     objecttolerance="10"
     gridtolerance="10"
     guidetolerance="10"
     inkscape:pageopacity="0"
     inkscape:pageshadow="2"
     inkscape:window-width="1920"
     inkscape:window-height="1011"
     id="namedview8"
     showgrid="true"
     inkscape:zoom="11.313709"
     inkscape:cx="16.195992"
     inkscape:cy="6.7619943"
     inkscape:window-x="1920"
     inkscape:window-y="32"
     inkscape:window-maximized="1"
     inkscape:current-layer="svg6">
    <inkscape:grid
       type="xygrid"
       id="grid822" />
  </sodipodi:namedview>
  <path
     d="M 5,2 C 3,2 2,2 2,4 V 7 9 H 3 V 7 H 6 V 9 H 7 V 7 h 2 v 2 h 1 V 7 h 3 v 1 1 h 1 V 8 7 3.875 C 14,2 13,2 11,2 H 10 9 Z M 3,4 C 3,3 4,3 5,3 H 6 V 6 H 3 Z M 7,3 H 9 V 6 H 7 Z m 3,0 h 1 c 1,0 2,0 2,1 v 2 h -3 z m 1,6 v 2 H 9 v 1 h 2 v 2 h 1 v -2 h 2 V 11 H 12 V 9 Z"
     id="path2"
     inkscape:connector-curvature="0"
     style="fill:#232629"
     sodipodi:nodetypes="ccccccccccccccccccccccccccccccccccccccccccccccccccccccc" />
  <path
     d="m 2,9 v 1 2 c 0,2 1,2 3,2 H 5.71875 6 7 8.28125 9 V 13 H 7 6.71875 L 7,12.71875 l 1,-1 1,-1 V 9 H 8 7 6 5.28125 4 3 Z m 1,1 H 4 4.28125 L 4,10.28125 l -1,1 z m 2.71875,0 H 6 7 8 8.28125 L 8,10.28125 l -1,1 -1,1 L 5.28125,13 H 5 C 4.2408798,13 3.4817596,13 3.1600927,12.562547 L 4,11.71875 Z"
     id="path4"
     inkscape:connector-curvature="0"
     style="fill:#762572"
     sodipodi:nodetypes="cccccccccccccccccccccccccccccccccccccccccc" />
</svg>
